X:1067
T:Polska "Småpolska"
R:Polska
Z:Göran Hed 2009
O:Gävle, Gästrikland
S:efter Gustaf Jernberg
B:Jenbergslåtar no 1
M: 3/4
L: 1/8
K: DDor
[A2D2]d2 d2 |{e}d>>^c de [f2d2]| {ef}e>d ^cd e^c|A/2B/2A/2^G/2 A3A-|A>>^c {c}[e2c2][e2c2]|
{^f}e>>d e>^f ga/2g/2|^fg a>>b a^f|^fdd4:|
|:{e}d>>B Bg g2|{a}g>^f ga b2|{ab}a>^f {f}d2 d2|d>>^c de [=f2d2]|e/2f/2e/2^c/2 A2A2|
{B}A>>^G A>^c e>^c| d^c d>f e>^c | ^cd d4:|
(:musicend:)

(:music:)
